svgs/sharp-solid/face-expressionless.svg

<svg xmlns="http://www.w3.org/2000/svg" viewBox="0 0 512 512"><!--! Font Awesome Pro 6.6.0 by @fontawesome - https://fontawesome.com License - https://fontawesome.com/license (Commercial License) Copyright 2024 Fonticons, Inc. --><path d="M256 512A256 256 0 1 0 256 0a256 256 0 1 0 0 512zM160 336l192 0 16 0 0 32-16 0-192 0-16 0 0-32 16 0zM128 192l16 0 64 0 16 0 0 32-16 0-64 0-16 0 0-32zm176 0l64 0 16 0 0 32-16 0-64 0-16 0 0-32 16 0z"/></svg>

<svg xmlns="http://www.w3.org/2000/svg" viewBox="0 0 512 512"><!--! Font Awesome Pro 6.4.2 by @fontawesome - https://fontawesome.com License - https://fontawesome.com/license (Commercial License) Copyright 2023 Fonticons, Inc. --><path d="M256 512A256 256 0 1 0 256 0a256 256 0 1 0 0 512zM160 336H352h16v32H352 160 144V336h16zM128 192h16 64 16v32H208 144 128V192zm176 0h64 16v32H368 304 288V192h16z"/></svg>
